X:1
T:Royal Air Force March Past
T:Royal Air Force March Past
T:Walford Davies
C:Walford Davies
%%score 1 2 3
L:1/8
M:2/4
K:Eb
V:1 treble nm="Flute" snm="Fl."
V:2 treble transpose=-2 nm="B♭ Clarinet" snm="B♭ Cl."
V:3 treble transpose=-2 nm="B♭ Clarinet" snm="B♭ Cl."
V:1
 !>!e z !>!E>!>!G | !>!B!>!c !>!B2 | !>!e z (3!>!G!>!G!>!B |!ff! !>!e2 !>!B>!>!B | !>!f4 | !>!B4 |: %6
!mf! (e>f e).g/.a/ | (b>c' b2) | (c'f') .c'.b | (gf/e/) .g.c' | (e>f e).g/.a/ | (b>c' b2) | %12
!<(! c'c'/d'/ e'!<)!d' | !>!c'2 !>!b2 |!f! (e>f e).g/.a/ | (b>c' b2) | (c'f') .c'.b | %17
 (gf/e/) .g.c' | (e>f e).g/.a/ | (b>c' b2) |!>(! c'c'/d'/ e'd'/e'/ | !>!f'2!>)! !>!b2 | %22
!mf! (e'>f') (e'/d'/).c'/.b/ | e'b b2 |!<(! (c'b e>!<)!f) |!>(! (g2!>)! b2) | %26
 (e'>f') (e'/d'/).c'/.b/ | (c'b e>f) |!<(! (gb g'>!<)!f' |!>(! e'2!>)! b2) | (e>f) (e/f/).g/.a/ | %31
 (b>c' b2) | (e'>f') .e'.c' | (bg) (fc) | ef/g/ !>!a2 | ga/b/ !>!c'2 | Bc/d/ e/d/e/f/ | %37
 .g z .f z :| !>!e z !>!e>!>!g | !>!b!>!c' !>!b2 | !>!e z!mp! (3!>!G!>!G"^cresc."!>!B | %41
 !>!e2 !>!B>!>!B |!mf!!<(! !>!f4!<)! | !>!b4 |"^ffz"!>(! !>!e4- | !>!e!>)! z z2 |] %46
V:2
[K:F] !>!F z z2 | z4 | !>!F z (3A,A,C | F2!ff! !>!C>!>!C | !>!G4 | !>!C4 |:!mf! A,4- | A,A EF | %8
 D2- DE | CC D2 | A4- | Ac B2 | AA/B/ AG | !>!F2 !>!G2 |!f! (A,2 D2) | (C2 B,A,) | (G,2 B,2) | %17
 (A,2 F,2) | (C2 D2 | E2) DE | FA/B/ AA | !>!G2 !>!B2 |!mf!"^Soli" FF/F/ !>!c2 | FF !>!c2 | %24
!<(! F2 (D>!<)!E |!>(! F2!>)! E2) | FF/F/ !>!c2 | FF (c2 |!<(! c2) (A>!<)!G |!>(! F2!>)! G2) | %30
 (F>G) (F/G/).A/.B/ | cA B/C/D/E/ | (F>G) .F.F | F2 (GD) | F!<(!G/A/ !>!G2 | AB/c/!<)! !>!B2 | %36
 A z A z | !>!A z !>!G z :| !>!F z !>!F>!>!A | !>!c!>!d !>!c2 | %40
 !>!F z!mp! (3!>!A,!>!A,"^cresc."!>!C | !>!F2 !>!C>!>!C |!mf!!<(! !>!G4!<)! | !>!c4 | %44
"^ffz"!>(! !>!C4- | !>!C z!>)! z2 |] %46
V:3
[K:F] !>!F z z2 | z4 | !>!F z z2 | z2 !>!A>!>!A | !>!B2 !>!G2 | !>!C2 !>!C2 |: (A,2 D2 | C2 B,A,) | %8
 (G,2 B,2 | A,2 F,2) | (A,2 D2 | C2 B,2) |!<(! F z E!<)!^C | !>!D2 !>!G2 |!f!!f! (A,2 A,)A, | %15
 (C2 B,)C | D2 B,B, | A, z A, z | (A,2 A,)A, | (C2 B,2) |!>(! A,2 A,A, | !>!G2!>)! !>!C2 | %22
 F,2 B,2 | (A,C) C2 |!<(! (F,A, C!<)!B,) |!>(! (AF G!>)!C) | F2 B2 | A,C C2- | C2 CC | .D.D .E.E | %30
 F z F z | A2 GC | D2 dB | (AF) (BG) | !>!D2 !>!G,/!>!A,/!>!B,/!>!C/ | %35
 !>!D2 !>!B,/!>!C/!>!D/!>!E/ | !>!F2 e2 | .A z .c z :| !>!F z !>!F,>!>!A, | !>!C!>!D !>!C2 | %40
 !>!F z z2 | z2 !>!A>!>!A | !>!B2 !>!G2 | !>!A2 !>!C2 |"^ffz"!>(! !>!A,4- | !>!A,!>)! z z2 |] %46

